humanity-icon-theme/Humanity/apps/22/gnome-panel-force-quit.svg

<?xml version="1.0" encoding="UTF-8" standalone="no"?>
<!-- Created with Inkscape (http://www.inkscape.org/) -->

<svg
   xmlns:svg="http://www.w3.org/2000/svg"
   xmlns="http://www.w3.org/2000/svg"
   xmlns:xlink="http://www.w3.org/1999/xlink"
   version="1.0"
   width="22"
   height="22"
   id="svg2">
  <defs
     id="defs4">
    <linearGradient
       id="linearGradient6457">
      <stop
         id="stop6459"
         style="stop-color:white;stop-opacity:0.94117647"
         offset="0" />
      <stop
         id="stop6461"
         style="stop-color:white;stop-opacity:0.70588237"
         offset="1" />
    </linearGradient>
    <linearGradient
       id="linearGradient2781">
      <stop
         id="stop2783"
         style="stop-color:#505050;stop-opacity:1"
         offset="0" />
      <stop
         id="stop6301"
         style="stop-color:#6e6e6e;stop-opacity:1"
         offset="0.13216467" />
      <stop
         id="stop2785"
         style="stop-color:#8c8c8c;stop-opacity:1"
         offset="1" />
    </linearGradient>
    <linearGradient
       id="linearGradient4222">
      <stop
         id="stop4224"
         style="stop-color:white;stop-opacity:1"
         offset="0" />
      <stop
         id="stop4226"
         style="stop-color:white;stop-opacity:0"
         offset="1" />
    </linearGradient>
    <linearGradient
       x1="21.866402"
       y1="8.5763302"
       x2="21.780495"
       y2="39.923653"
       id="linearGradient5533"
       xlink:href="#linearGradient2781"
       gradientUnits="userSpaceOnUse"
       gradientTransform="matrix(0.6363644,0,0,0.6229527,-3.909122,-4.606601)" />
    <linearGradient
       x1="15.21056"
       y1="8.6471233"
       x2="15.21056"
       y2="18.882378"
       id="linearGradient5535"
       xlink:href="#linearGradient4222"
       gradientUnits="userSpaceOnUse"
       gradientTransform="matrix(0.6129052,0,0,0.5862092,-3.3226315,-3.569023)" />
    <linearGradient
       x1="24"
       y1="13"
       x2="24"
       y2="40"
       id="linearGradient5537"
       xlink:href="#linearGradient6457"
       gradientUnits="userSpaceOnUse"
       gradientTransform="matrix(0.5263158,0,0,0.4814815,-0.6315785,0.240741)" />
  </defs>
  <g
     transform="translate(-1.0000249,0.5000249)"
     id="g5525">
    <path
       d="m 2.5,1 c -0.554,0 -1,0.446 -1,1 l 0,17 c 0,0.554 0.446,1.000001 1,1 l 10.5,0 -2.5625,-2.59375 4.625,-4.25 L 5,5.3125 11.09375,1 2.5,1 z M 14.625,1 8.25,5.3125 18.1875,13.09375 13.5,17.53125 15.9375,20 21.5,20 c 0.554,0 1,-0.445999 1,-1 l 0,-17 c 0,-0.554 -0.446,-1 -1,-1 l -6.875,0 z"
       id="rect1887"
       style="fill:url(#linearGradient5533);fill-opacity:1;stroke:#565853;stroke-width:0.99995029;stroke-miterlimit:4;stroke-opacity:1;stroke-dasharray:none" />
    <path
       d="M 3,2 C 2.723,2 2.5,2.2229978 2.5,2.5 l 0,16 c 0,0.277002 0.223,0.500001 0.5,0.5 l 9,0 -1.5625,-1.59375 4.625,-4.25 L 5,5.3125 9.6875,2 3,2 z M 13.15625,2 8.25,5.3125 18.1875,13.09375 13.5,17.53125 14.9375,19 21,19 c 0.277,0 0.500001,-0.222997 0.5,-0.5 l 0,-16 C 21.5,2.2229977 21.277001,2 21,2 l -7.84375,0 z"
       id="rect2779"
       style="opacity:0.2;fill:none;stroke:url(#linearGradient5535);stroke-width:0.99993587;stroke-miterlimit:4;stroke-opacity:1;stroke-dasharray:none" />
    <path
       d="M 2.5,6.5 C 2.2229083,6.5 2,6.723 2,7 l 0,12 c 0,0.277 0.2229084,0.500001 0.5,0.5 l 10,0 -2.0625,-2.09375 4.625,-4.25 L 6.53125,6.5 2.5,6.5 z m 7.28125,0 8.40625,6.59375 L 13.5,17.53125 15.4375,19.5 21.5,19.5 C 21.777092,19.5 22,19.277001 22,19 L 22,7 C 22,6.723 21.777092,6.5 21.5,6.5 l -11.71875,0 z"
       id="rect6287"
       style="fill:url(#linearGradient5537);fill-opacity:1;stroke:none" />
    <path
       d="m 21,3.5 c 2.38e-4,0.552214 -0.447547,1 -1,1 -0.552455,0 -1.000241,-0.447786 -1,-1 -2.41e-4,-0.552214 0.447545,-1 1,-1 0.552453,0 1.000238,0.447786 1,1 l 0,0 z"
       id="path6293"
       style="fill:#ffc24c;fill-opacity:1;stroke:none" />
    <path
       d="m 18,3.5 c 2.38e-4,0.552214 -0.447547,1 -0.999999,1 -0.552456,0 -1.000241,-0.447786 -1,-1 -2.41e-4,-0.552215 0.447544,-1 1,-1 0.552452,0 1.000237,0.447785 0.999999,1 l 0,0 z"
       id="path6622"
       style="fill:#ffc24c;fill-opacity:1;stroke:none" />
    <path
       d="m 15.000001,3.5 c 2.37e-4,0.552214 -0.447547,1 -1,1 -0.552455,0 -1.000241,-0.447786 -1,-1 -2.41e-4,-0.552215 0.447545,-1 1,-1 0.552453,0 1.000237,0.447785 1,1 l 0,0 z"
       id="path6630"
       style="fill:#ffc24c;fill-opacity:1;stroke:none" />
  </g>
</svg>

<?xml version="1.0" encoding="UTF-8" standalone="no"?>
<!-- Created with Inkscape (http://www.inkscape.org/) -->
<svg id="svg2" xmlns="http://www.w3.org/2000/svg" height="22" width="22" version="1.0" xmlns:xlink="http://www.w3.org/1999/xlink">
 <defs id="defs4">
  <linearGradient id="linearGradient5533" y2="39.924" gradientUnits="userSpaceOnUse" x2="21.78" gradientTransform="matrix(.63636 0 0 .62295 -3.9091 -4.6066)" y1="8.5763" x1="21.866">
   <stop id="stop2783" style="stop-color:#505050" offset="0"/>
   <stop id="stop6301" style="stop-color:#6e6e6e" offset=".13216"/>
   <stop id="stop2785" style="stop-color:#8c8c8c" offset="1"/>
  </linearGradient>
  <linearGradient id="linearGradient5535" y2="18.882" gradientUnits="userSpaceOnUse" x2="15.211" gradientTransform="matrix(.61291 0 0 .58621 -3.3226 -3.569)" y1="8.6471" x1="15.211">
   <stop id="stop4224" style="stop-color:#fff" offset="0"/>
   <stop id="stop4226" style="stop-color:#fff;stop-opacity:0" offset="1"/>
  </linearGradient>
  <linearGradient id="linearGradient5537" y2="40" gradientUnits="userSpaceOnUse" x2="24" gradientTransform="matrix(.52632 0 0 .48148 -.63158 .24074)" y1="13" x1="24">
   <stop id="stop6459" style="stop-color:#fff;stop-opacity:.94118" offset="0"/>
   <stop id="stop6461" style="stop-color:#fff;stop-opacity:.70588" offset="1"/>
  </linearGradient>
 </defs>
 <g id="g5525" transform="translate(-1 .50002)">
  <path id="rect1887" style="stroke:#565853;stroke-width:.99995;fill:url(#linearGradient5533)" d="m2.5 1c-0.554 0-1 0.446-1 1v17c0 0.554 0.446 1 1 1h10.5l-2.5625-2.5938 4.625-4.25-10.062-7.8435 6.094-4.3125h-8.594zm12.125 0-6.375 4.3125 9.938 7.7815-4.688 4.437 2.438 2.469h5.562c0.554 0 1-0.446 1-1v-17c0-0.554-0.446-1-1-1h-6.875z"/>
  <path id="rect2779" style="opacity:.2;stroke:url(#linearGradient5535);stroke-width:.99994;fill:none" d="m3 2c-0.277 0-0.5 0.223-0.5 0.5v16c0 0.277 0.223 0.5 0.5 0.5h9l-1.5625-1.5938 4.625-4.25-10.062-7.8435 4.6875-3.3125h-6.6875zm10.156 0-4.906 3.3125 9.938 7.7815-4.688 4.437 1.438 1.469h6.062c0.277 0 0.5-0.223 0.5-0.5v-16c0-0.277-0.223-0.5-0.5-0.5h-7.8438z"/>
  <path id="rect6287" style="fill:url(#linearGradient5537)" d="m2.5 6.5c-0.2771 0-0.5 0.223-0.5 0.5v12c0 0.277 0.22291 0.5 0.5 0.5h10l-2.0625-2.0938 4.625-4.25-8.5308-6.656h-4.0312zm7.2812 0 8.4062 6.5938l-4.687 4.437 1.938 1.969h6.062c0.277 0 0.5-0.223 0.5-0.5v-12c0-0.277-0.223-0.5-0.5-0.5h-11.719z"/>
  <path id="path6293" style="fill:#ffc24c" d="m21 3.5c0.000238 0.55221-0.44755 1-1 1-0.55246 0-1.0002-0.44779-1-1-0.000241-0.55221 0.44754-1 1-1 0.55245 0 1.0002 0.44779 1 1z"/>
  <path id="path6622" style="fill:#ffc24c" d="m18 3.5c0.000238 0.55221-0.44755 1-1 1-0.55246 0-1.0002-0.44779-1-1-0.000241-0.55222 0.44754-1 1-1 0.55245 0 1.0002 0.44778 1 1z"/>
  <path id="path6630" style="fill:#ffc24c" d="m15 3.5c0.000237 0.55221-0.44755 1-1 1-0.55246 0-1.0002-0.44779-1-1-0.000241-0.55222 0.44754-1 1-1 0.55245 0 1.0002 0.44778 1 1z"/>
 </g>
</svg>
